X:1
T:Jesus, I Come
T:George Coles Stebbins
T:Jesus, I Come
T:Public Domain
T:Public Domain
C:George Coles Stebbins
Z:Public Domain
%%score ( 1 2 ) ( 3 4 )
L:1/8
M:6/4
K:A
V:1 treble 
V:2 treble 
V:3 bass 
V:4 bass 
V:1
 [CE]3 [^B,^D] [CE]2 [Ec]4 [EA]2 | [FA]3 [EG] [DF]2 [CE]6 | [CA]3 [B,G] [CA]2 [DB]6 | %3
w: 1.~Out of my bond- age,|sor- row, and night,|Je- sus, I come,|
w: 2.~Out of my shame- ful|fail- ure and loss,|Je- sus, I come,|
w: 3.~Out of un- rest and|ar- ro- gant pride,|Je- sus, I come,|
w: 4.~Out of the fear and|dread of the tomb,|Je- sus, I come,|
 [DB]3 [CA] [DB]2 [Ec]6 | [CE]3 [^B,^D] [CE]2 [Ec]4 [EA]2 | [FA]3 [EG] [DF]2 [CE]6 | %6
w: Je- sus, I come;|In- to Thy free- dom,|glad- ness, and light,|
w: Je- sus, I come;|In- to the glor- ious|gain of Thy cross,|
w: Je- sus, I come;|In- to Thy bless- èd|will to a- bide,|
w: Je- sus, I come;|In- to the joy and|light of Thy throne,|
 [CA]3 [B,G] [CA]2 [Ec]4 [DB]2 | [CA]6- [CA]4 z2 | [FA]3 [^EG] [FA]2 [Fd]4 [DF]2 | %9
w: Je- sus, I come to|Thee; *|Out of my sick- ness,|
w: Je- sus, I come to|Thee. *|Out of earth’s sor- rows|
w: Je- sus, I come to|Thee. *|Out of my- self to|
w: Je- sus, I come to|Thee. *|Out of the depths of|
 [CE]3 [^B,^D] [CE]2 [Ec]6 | [EB]3 [E^A] [EB]2 [Ge]4 ([EG][EG]) | [^DB]3 [DA] [DF]2 (z4 =D2) | %12
w: in- to Thy health,|Out of my want and *|in- to Thy *|
w: in- to Thy balm,|Out of life’s storms and *|in- to Thy *|
w: dwell in Thy love,|Out of de- spair into *|rap- tures a- *|
w: ru- in un- told,|In- to the peace of~Thy *|shel- ter- ing *|
 [CE]3 [^B,^D] [CE]2 [Ec]4 [EA]2 | [FA]3 [EG] [DF]2 [CE]6 | [CA]3 [B,G] [CA]2 [Ec]4 [DB]2 | %15
w: Out of my sin and|in- to Thy- self,|Je- sus, I come to|
w: Out of dis- tress to|jub- i- lant psalm,|Je- sus, I come to|
w: Up- ward for aye on|wings like a dove,|Je- sus, I come to|
w: Ev- er Thy glor- ious|face to be- hold,|Je- sus, I come to|
 [CA]6- [CA]4 z2 |] %16
w: Thee. *|
w: Thee. *|
w: Thee. *|
w: Thee. *|
V:2
 x12 | x12 | x12 | x12 | x12 | x12 | x12 | x12 | x12 | x12 | x12 | x6 E6 | x12 | x12 | x12 | x12 |] %16
w: |||||||||||wealth,|||||
w: |||||||||||calm,|||||
w: |||||||||||bove,|||||
w: |||||||||||fold,|||||
V:3
 [A,,A,]3 [A,,A,] [A,,A,]2 [A,,A,]4 [C,A,]2 | [D,A,]3 [D,A,] [D,A,]2 [A,,A,]6 | %2
 [E,A,]3 E, [E,A,]2 [E,G,]6 | [E,G,]3 E, [E,G,]2 [A,,A,]6 | %4
 [A,,A,]3 [A,,A,] [A,,A,]2 [A,,A,]4 [C,A,]2 | [D,A,]3 [D,A,] [D,A,]2 [A,,A,]6 | %6
 [E,A,]3 E, [E,A,]2 [E,A,]4 [E,G,]2 | [A,,E,A,]6- [A,,E,A,]4 z2 | %8
 [D,A,]3 [D,B,] [D,A,]2 [D,A,]4 [D,A,]2 | [A,,A,]3 [A,,A,] [A,,A,]2 [A,,A,]6 | %10
 [E,G,]3 [E,^^F,] [E,G,]2 [E,B,]4 ([E,B,][E,B,]) | [B,,A,]3 [B,,F,] [B,,A,]2 [E,G,]6 | %12
 [A,,A,]3 [A,,A,] [A,,A,]2 [A,,A,]4 [C,A,]2 | [D,A,]3 [D,A,] [D,A,]2 [A,,A,]6 | %14
 [E,A,]3 E, [E,A,]2 [E,A,]4 [E,G,]2 | [A,,E,A,]6- [A,,E,A,]4 z2 |] %16
V:4
 x12 | x12 | x3 E, x8 | x3 E, x8 | x12 | x12 | x3 E, x8 | x12 | x12 | x12 | x12 | x12 | x12 | x12 | %14
 x3 E, x8 | x12 |] %16

